svgs/sharp-light/circle-b.svg

<svg xmlns="http://www.w3.org/2000/svg" viewBox="0 0 512 512"><!--! Font Awesome Pro 6.6.0 by @fontawesome - https://fontawesome.com License - https://fontawesome.com/license (Commercial License) Copyright 2024 Fonticons, Inc. --><path d="M256 32a224 224 0 1 1 0 448 224 224 0 1 1 0-448zm0 480A256 256 0 1 0 256 0a256 256 0 1 0 0 512zM160 128l0 16 0 112 0 112 0 16 16 0 120 0c39.8 0 72-32.2 72-72c0-26.6-14.4-49.8-35.9-62.3C344.4 236.8 352 219.3 352 200c0-39.8-32.2-72-72-72l-104 0-16 0zm160 72c0 22.1-17.9 40-40 40l-88 0 0-80 88 0c22.1 0 40 17.9 40 40zM192 352l0-80 88 0 16 0c22.1 0 40 17.9 40 40s-17.9 40-40 40l-104 0z"/></svg>

<svg xmlns="http://www.w3.org/2000/svg" viewBox="0 0 512 512"><!--! Font Awesome Pro 6.5.2 by @fontawesome - https://fontawesome.com License - https://fontawesome.com/license (Commercial License) Copyright 2024 Fonticons, Inc. --><path d="M256 32a224 224 0 1 1 0 448 224 224 0 1 1 0-448zm0 480A256 256 0 1 0 256 0a256 256 0 1 0 0 512zM160 128v16V256 368v16h16H296c39.8 0 72-32.2 72-72c0-26.6-14.4-49.8-35.9-62.3C344.4 236.8 352 219.3 352 200c0-39.8-32.2-72-72-72H176 160zm160 72c0 22.1-17.9 40-40 40H192V160h88c22.1 0 40 17.9 40 40zM192 352V272h88 16c22.1 0 40 17.9 40 40s-17.9 40-40 40H192z"/></svg>
